src/lib/img/unesp.svg

<svg viewBox="0 0 597.35 194.98" xmlns="http://www.w3.org/2000/svg"><g fill-rule="evenodd"><path d="m489.42 29.54 16.13-27.93 16.13 27.93zm37.84 0 16.13-27.93 16.13 27.93zm-56.76 32.77 16.13-27.93 16.13 27.93zm75.68 0 16.13-27.93 16.12 27.93zm-37.84 0 16.13-27.93 16.12 27.93zm18.92 32.77 16.13-27.93 16.13 27.93zm70.09-62.31-16.12 27.93-16.13-27.93zm-56.76-32.77-16.12 27.93-16.13-27.93zm18.93 32.77-16.13 27.93-16.13-27.93zm-37.84 0-16.13 27.93-16.13-27.93zm18.91 32.77-16.12 27.93-16.13-27.93zm37.85 0-16.13 27.93-16.13-27.93z" fill="#009fe0"/><path d="m96.63 157v-94.66h24.82v11.24a34.86 34.86 0 0 1 12.55-10.32 37.11 37.11 0 0 1 16.11-3.45q15.69 0 23.49 8.15c5.2 5.44 7.78 13.58 7.78 24.52v64.52h-25.38v-57.2c0-6.81-1.16-11.66-3.45-14.54s-6-4.37-11.18-4.37q-9 0-14.17 5.35c-3.48 3.57-5.24 8.44-5.24 14.6v56.16zm155.85-28.74h25.27q-3.84 15-15.46 23.45t-28.36 8.5q-20.55 0-32.58-13.79t-12-37.43q0-23.22 11.84-36.65t32.39-13.34q21.79 0 33.65 13.2t11.83 37.58v4.07a22.71 22.71 0 0 1 -.24 2.56h-63.25c.35 7.43 2.16 13 5.43 16.79s8 5.65 14.15 5.65a20.22 20.22 0 0 0 10.71-2.56 17.46 17.46 0 0 0 6.62-8zm-36.91-28.55h37.27c-.24-6.39-1.92-11.26-5.09-14.6s-7.72-5-13.64-5q-8.25 0-13 5t-5.52 14.54zm95.43 28.57a12.51 12.51 0 0 0 5 8.64c3.25 2.34 8.12 3.54 14.63 3.54q7.4 0 11.47-2.5a7.76 7.76 0 0 0 4-7c0-4.28-5.05-7.54-15.16-9.66q-6.19-1.32-9.83-2.26c-12.34-3.15-20.87-6.85-25.66-11.15s-7.19-10.11-7.19-17.42q0-14.53 10.49-23t28.5-8.47c12.66 0 22.63 2.82 29.84 8.44s11.06 13.56 11.54 23.74h-24.63a11.81 11.81 0 0 0 -4.57-9.34c-2.86-2.2-6.87-3.3-12-3.3-4.81 0-8.38.71-10.72 2.17a7.2 7.2 0 0 0 -3.54 6.54c0 3.78 6.29 7.14 18.9 10 2.88.66 5.18 1.17 6.87 1.57q18.9 4.44 25.83 10.7c4.6 4.17 6.93 10 6.93 17.66q0 16.14-11.36 24.59c-7.57 5.62-18.61 8.44-33.05 8.44q-19.62 0-30.68-8.8-10.67-8.48-11.05-23.15zm134.82-18c0-9.51-1.81-16.8-5.41-21.82s-8.8-7.52-15.67-7.52c-6.71 0-11.86 2.5-15.37 7.49s-5.26 12.28-5.26 21.85q0 13.42 5.53 20.75c3.69 4.87 8.89 7.31 15.64 7.31a17.6 17.6 0 0 0 15-7.49c3.65-5 5.5-11.86 5.5-20.57zm-66.33 84.72v-132.66h24.11v12.81c3.66-5.58 7.76-9.63 12.25-12.19a31.69 31.69 0 0 1 15.9-3.83q17.47 0 28.39 13.79t10.86 36.27q0 22.74-10.88 36.89t-28.06 14.15a33.31 33.31 0 0 1 -16.14-3.84 32.05 32.05 0 0 1 -11.81-11.14v49.75zm-294.74-132.66v94.66h-24.82v-11.22a35.36 35.36 0 0 1 -12.61 10.31 36.75 36.75 0 0 1 -16.14 3.45q-15.6 0-23.39-8.17t-7.79-24.49v-64.54h25.36v57.22c0 6.75 1.13 11.53 3.39 14.42s6 4.31 11.23 4.31q8.88 0 14.15-5.35t5.26-14.6v-56z" fill="#fff"/></g></svg>

<svg xmlns="http://www.w3.org/2000/svg" viewBox="0 0 597.35 194.98"><defs><style>.cls-1{fill:#009fe0;}.cls-1,.cls-2{fill-rule:evenodd;}.cls-2{fill:#fff;}</style></defs><g id="Layer_2" data-name="Layer 2"><g id="Layer_1-2" data-name="Layer 1"><path class="cls-1" d="M489.42,29.54,505.55,1.61l16.13,27.93Zm37.84,0L543.39,1.61l16.13,27.93ZM470.5,62.31l16.13-27.93,16.13,27.93Zm75.68,0,16.13-27.93,16.12,27.93Zm-37.84,0,16.13-27.93,16.12,27.93Zm18.92,32.77,16.13-27.93,16.13,27.93Zm70.09-62.31L581.23,60.7,565.1,32.77ZM540.59,0,524.47,27.93,508.34,0Zm18.93,32.77L543.39,60.7,527.26,32.77Zm-37.84,0L505.55,60.7,489.42,32.77Zm18.91,32.77L524.47,93.47,508.34,65.54Zm37.85,0L562.31,93.47,546.18,65.54Z"/><path class="cls-2" d="M96.63,157V62.34h24.82V73.58A34.86,34.86,0,0,1,134,63.26a37.11,37.11,0,0,1,16.11-3.45q15.69,0,23.49,8.15c5.2,5.44,7.78,13.58,7.78,24.52V157H156V99.8c0-6.81-1.16-11.66-3.45-14.54s-6-4.37-11.18-4.37q-9,0-14.17,5.35c-3.48,3.57-5.24,8.44-5.24,14.6V157Zm155.85-28.74h25.27q-3.84,15-15.46,23.45t-28.36,8.5q-20.55,0-32.58-13.79t-12-37.43q0-23.22,11.84-36.65T233.58,59q21.79,0,33.65,13.2t11.83,37.58c0,1.81,0,3.15,0,4.07a22.71,22.71,0,0,1-.24,2.56H215.57c.35,7.43,2.16,13,5.43,16.79s8,5.65,14.15,5.65a20.22,20.22,0,0,0,10.71-2.56,17.46,17.46,0,0,0,6.62-8ZM215.57,99.71h37.27c-.24-6.39-1.92-11.26-5.09-14.6s-7.72-5-13.64-5q-8.25,0-13,5t-5.52,14.54ZM311,128.28a12.51,12.51,0,0,0,5,8.64c3.25,2.34,8.12,3.54,14.63,3.54q7.4,0,11.47-2.5a7.76,7.76,0,0,0,4-7c0-4.28-5.05-7.54-15.16-9.66q-6.19-1.32-9.83-2.26c-12.34-3.15-20.87-6.85-25.66-11.15s-7.19-10.11-7.19-17.42q0-14.53,10.49-23T327.25,59c12.66,0,22.63,2.82,29.84,8.44S368.15,81,368.63,91.18H344a11.81,11.81,0,0,0-4.57-9.34c-2.86-2.2-6.87-3.3-12-3.3-4.81,0-8.38.71-10.72,2.17a7.2,7.2,0,0,0-3.54,6.54c0,3.78,6.29,7.14,18.9,10,2.88.66,5.18,1.17,6.87,1.57q18.9,4.44,25.83,10.7c4.6,4.17,6.93,10,6.93,17.66q0,16.14-11.36,24.59c-7.57,5.62-18.61,8.44-33.05,8.44q-19.62,0-30.68-8.8-10.67-8.48-11.05-23.15Zm134.82-18c0-9.51-1.81-16.8-5.41-21.82s-8.8-7.52-15.67-7.52c-6.71,0-11.86,2.5-15.37,7.49s-5.26,12.28-5.26,21.85q0,13.42,5.53,20.75c3.69,4.87,8.89,7.31,15.64,7.31a17.6,17.6,0,0,0,15-7.49c3.65-5,5.5-11.86,5.5-20.57ZM379.49,195V62.34H403.6V75.15c3.66-5.58,7.76-9.63,12.25-12.19a31.69,31.69,0,0,1,15.9-3.83q17.47,0,28.39,13.79T471,109.19q0,22.74-10.88,36.89t-28.06,14.15a33.31,33.31,0,0,1-16.14-3.84,32.05,32.05,0,0,1-11.81-11.14V195ZM84.75,62.34V157H59.93V145.78a35.36,35.36,0,0,1-12.61,10.31,36.75,36.75,0,0,1-16.14,3.45q-15.6,0-23.39-8.17T0,126.88V62.34H25.36v57.22c0,6.75,1.13,11.53,3.39,14.42s6,4.31,11.23,4.31q8.88,0,14.15-5.35t5.26-14.6v-56Z"/></g></g></svg>
